!!!COA:	Josquin des Prez
!!!CDT:	~1450-1521/08/27
!!!OTL:	Credo Quarti toni
!!!AGN:	Mass section; Credo
!!!SCT:	NJE 13.4
!!!SCA:	New Josquin Edition 13.4
!!!voices:	4
**kern	**kern	**kern	**kern
*staff4	*staff3	*staff2	*staff1
*Ivox	*Ivox	*Ivox	*Ivox
*I"Bassus	*I"Tenor	*I"Altus	*I"Superius
*I'B	*I'T	*I'A	*I'S
*>[A,B,C]	*>[A,B,C]	*>[A,B,C]	*>[A,B,C]
*>A	*>A	*>A	*>A
*clefF4	*clefGv2	*clefGv2	*clefG2
*k[]	*k[]	*k[]	*k[]
*M2/1	*M2/1	*M2/1	*M2/1
*met(C|)	*met(C)	*met(C)	*met(C|)
!!primary-mensuration: met(C|)
=1-	=1-	=1-	=1-
*	*rscale:1/2	*rscale:1/2	*
!	!	!LO:TX:Z=8:t=Canon at the lower fifth	!
0A	1r	0e	[0a
!	!LO:N:vis=1	!	!
.	[y1A	.	.
=2	=2-	=2-	=2
1F	1A]yy	0f	1.a]
1D	[1B-	.	.
.	.	.	4g/
.	.	.	4f/
=3	=3	=3	=3
1E	1B-]	0e	1g
!	!LO:N:vis=1	!	!
[1AA	[y1A	.	[1a
=4	=4-	=4-	=4
2AA/]	1A]yy	0e	1a]
2BB/	.	.	.
1C	[1A	.	1e
=5	=5	=5	=5
2D\	1A]	1d	1f
2F\	.	.	.
1E	1G	1c	2g/
.	.	.	2e/
=6	=6-	=6-	=6
1D	1F	0d	4f/
.	.	.	4e/
.	.	.	4d/
.	.	.	4c/
[1GG	[1G	.	1B
=7	=7	=7	=7
2GG/]	1G]	1d	1.d
2GG/	.	.	.
1GG	1G	1r	.
.	.	.	2d/
=8	=8-	=8-	=8
1GG	1r	1B	1d
1C	1E	1c	1e
=9	=9	=9	=9
1BB	1F	0d	1d
!	!LO:N:vis=1	!	!
1GG	[y1G	.	2B/
.	.	.	[2d/
=10	=10-	=10-	=10
1.G	1G]yy	0d	4d/]
.	.	.	4c/
.	.	.	4B/
.	.	.	4A/
.	[1G	.	1G
2F\	.	.	.
=11	=11	=11	=11
1E	1G]	1c	0r
1D	1F	1d	.
=12	=12-	=12-	=12
1G	1G	1e	0r
1F	1A	[1d	.
=13	=13	=13	=13
0E	0G	1d]	0r
.	.	1c#i	.
=14	=14-	=14-	=14
1D	1F	0d	0r
2r	[1G	.	.
[2GG/	.	.	.
=15	=15	=15	=15
2GG/]	1G]	1r	1.g
2.G\	.	.	.
.	1r	1B	.
4F\	.	.	.
4E\	.	.	2g/
4D\	.	.	.
=16	=16-	=16-	=16
2C/	1E	1c	1g
2E\	.	.	.
1D	1F	1d	1a
=17	=17	=17	=17
1GG	1G	1d	1b
!	!	!LO:N:vis=1	!
[1C	1G	[y1e	2g/
.	.	.	[2cc\
=18	=18-	=18-	=18
1C]	0A	1e]yy	4cc\]
.	.	.	4b\
.	.	.	4a/
.	.	.	4g/
1D	.	1d	1f
=19	=19	=19	=19
2E\	1G	1c	2r
2C/	.	.	2e/
!	!	!LO:N:vis=1	!
1D	1F	[y1B	2f/
.	.	.	[2d/
=20	=20-	=20-	=20
1r	0E	1B]yy	2d/]
.	.	.	4c/
.	.	.	4B/
1AA	.	1A	2c/
.	.	.	4d/
.	.	.	4c/
=21	=21	=21	=21
1BB	1D	1r	1d
!	!	!LO:N:vis=1	!
1C	1r	[y1e	2G/
.	.	.	[2c/
=22	=22-	=22-	=22
1AA	0A	1e]yy	4c/]
.	.	.	4B/
.	.	.	4A/
.	.	.	4G/
[1D	.	[1f	1F
=23	=23	=23	=23
1D]	0B-i	1f]	1r
!	!	!LO:N:vis=1	!
1E	.	[y1e	1G
=24	=24-	=24-	=24
2AA/	0A	1e]yy	2A/
2.A\	.	.	1c
.	.	1c	.
4G\	.	.	.
4F\	.	.	2A/
4E\	.	.	.
=25	=25	=25	=25
1D	1F	1d	4B/
.	.	.	4c/
.	.	.	4d/
.	.	.	4B/
1C	1G	1e	2c/
.	.	.	2g/
=26	=26-	=26-	=26
1F	1A	1.d	4f/
.	.	.	4e/
.	.	.	4d/
.	.	.	4c/
1G	[1G	.	2B/
.	.	2B\	2d/
=27	=27	=27	=27
2C/	2G/]	1c	4c/
.	.	.	4B/
2E\	2E/	.	4A/
.	.	.	4G/
!	!	!LO:N:vis=1	!
1D	1F#i	[y1d	1A
=28	=28-	=28-	=28
1GG	0G	1d]yy	2G/
.	.	.	2.b-\
1r	.	1r	.
.	.	.	4a/
.	.	.	4g/
.	.	.	4f/
=29	=29	=29	=29
!	!LO:N:vis=0	!LO:N:vis=0	!
2E\	0r	0r	2g/
2F\	.	.	1a
1G	.	.	.
.	.	.	[2g/
=30	=30-	=30-	=30
1A	0ryy	0ryy	2g/]
.	.	.	2f/
2G\	.	.	2e/
2F\	.	.	[2d/
=31	=31	=31	=31
!	!LO:N:vis=0	!LO:N:vis=0	!
1E	0r	0r	2d/]
.	.	.	4c/
.	.	.	4B/
1F	.	.	4A/
.	.	.	4G/
.	.	.	[2d/
=32	=32-	=32-	=32
2E\	0ryy	0ryy	4d/]
.	.	.	4c/
2F\	.	.	2c/
1G	.	.	1B
=33	=33	=33	=33
!	!LO:N:vis=0	!LO:N:vis=0	!
1A	0r	0r	4A/
.	.	.	4B/
.	.	.	4c/
.	.	.	4d/
1r	.	.	2e/
.	.	.	[2f/
=34	=34-	=34-	=34
1A	0ryy	0ryy	4f/]
.	.	.	4e/
.	.	.	1a
1B-i	.	.	.
.	.	.	2g/
=35	=35	=35	=35
!	!LO:N:vis=0	!LO:N:vis=0	!
2A\	0r	0r	1.cc
2A\	.	.	.
2A\	.	.	.
2G\	.	.	2b\
=36	=36-	=36-	=36
2F\	0ryy	0ryy	2a/
2G\	.	.	4g/
.	.	.	4f/
2A\	.	.	2e/
[2B-i\	.	.	[2d/
=37	=37	=37	=37
!	!LO:N:vis=0	!LO:N:vis=1.	!
2B-\]	0r	0r	2d/]
1G	.	.	4c/
.	.	.	4B/
.	.	.	1A
2F#i\	.	.	.
=38	=38-	=38-	=38
0G	0ryy	1ryy	0G
.	.	1B	.
=39	=39	=39	=39
0r	1E	1c	0r
!	!	!LO:N:vis=1	!
.	1F	[y1d	.
=40	=40-	=40-	=40
0r	0G	1d]yy	0r
.	.	1B	.
=41	=41	=41	=41
0r	1E	1c	0r
!	!	!LO:N:vis=1	!
.	1F	[y1d	.
=42	=42-	=42-	=42
1GG	0G	1d]yy	1r
[1C	.	1e	1g
=43	=43	=43	=43
2C/]	1A	1r	1.cc
4BB/	.	.	.
4C/	.	.	.
!	!	!LO:N:vis=1	!
2AA/	1r	[y1e	.
[2A\	.	.	4b\
.	.	.	4cc\
=44	=44-	=44-	=44
4A\]	0A	1e]yy	1a
4G\	.	.	.
2A\	.	.	.
2F\	.	[1f	2r
[2D\	.	.	[2a/
=45	=45	=45	=45
4D\]	0B-i	1f]	2a/]
4C/	.	.	.
2D\	.	.	4g/
.	.	.	4f/
!	!	!LO:N:vis=1	!
1E	.	[y1e	1g
=46	=46-	=46-	=46
1r	0A	1e]yy	2r
.	.	.	1a
[1AA	.	1e	.
.	.	.	4g/
.	.	.	4f/
=47	=47	=47	=47
1AA]	1A	1c	1e
1BB	1F	1d	1r
=48	=48-	=48-	=48
1GG	1G	1e	1r
2.D\	1A	2f\	2r
.	.	[2d\	2d/
4C/	.	.	.
=49	=49	=49	=49
2D\	2B\	2d\]	2f/
2E\	1G	2c\	2g/
1D	.	1d	1a
.	2F#i/	.	.
=50	=50-	=50-	=50
2GG/	1G	1r	1.b
2.G\	.	.	.
.	1r	[1d	.
4A\	.	.	.
[2B\	.	.	4a/
.	.	.	4g/
=51	=51	=51	=51
4B\]	0G	1d]	1g
4A\	.	.	.
4G\	.	.	.
4F\	.	.	.
1E	.	1c	1r
=52	=52-	=52-	=52
1D	1F	1d	2.a/
.	.	.	4b\
1C	1G	[1e	4cc\
.	.	.	4dd\
.	.	.	[2cc\
=53	=53	=53	=53
1AA	0A	1e]	4cc\]
.	.	.	4b\
.	.	.	4a/
.	.	.	4g/
1D	.	1d	2.f#i/
.	.	.	4e/
=54	=54-	=54-	=54
0GG	1G	1r	0g
.	1r	1d	.
=55	=55	=55	=55
0r	1G	1d	0r
.	1G	1e	.
=56	=56-	=56-	=56
0r	1A	1c	0r
.	1F	1d	.
=57	=57	=57	=57
0r	1G	1.B	0r
!	!LO:N:vis=2.	!	!
.	[y1E	.	.
!	!	!LO:N:vis=2.	!
.	.	[y2c\	.
=58	=58-	=58-	=58
0r	2E/]yy	1c]yy	0r
.	1.F	.	.
.	.	[1A	.
=59	=59	=59	=59
0r	1.D	2A/]	0r
.	.	1.B	.
!	!LO:N:vis=2.	!	!
.	[y2E/	.	.
=60	=60-	=60-	=60
0r	1E]yy	1.c	0r
.	[1F	.	.
.	.	[2d\	.
=61	=61	=61	=61
0r	2F/]	1d]	0r
.	1.G	.	.
.	.	1e	.
=62	=62-	=62-	=62
1.AA	1A	1r	1.cc
.	1r	[1e	.
2AA/	.	.	2b\
=63	=63	=63	=63
1AA	0A	1e]	2a/
.	.	.	4g/
.	.	.	4f/
1AA	.	1c	1e
=64	=64-	=64-	=64
1BB	1F	1d	1d
1GG	1G	[1e	1g
=65	=65	=65	=65
1C	0A	1e]	1e
!	!	!LO:N:vis=1	!
1D	.	[y1d	1f
=66	=66-	=66-	=66
1GG	0G	1d]yy	0g
2r	.	1r	.
[2G\	.	.	.
=67	=67	=67	=67
!	!LO:N:vis=0	!LO:N:vis=0	!
4G\]	0r	0r	1r
4A\	.	.	.
4B\	.	.	.
4G\	.	.	.
2A\	.	.	2e/
2D\	.	.	2f/
=68	=68-	=68-	=68
2E\	0ryy	0ryy	1g
1G	.	.	.
.	.	.	1a
2F#i\	.	.	.
=69	=69	=69	=69
!	!LO:N:vis=0	!LO:N:vis=0	!
1G	0r	0r	1g
2r	.	.	1e
[2A\	.	.	.
=70	=70-	=70-	=70
2A\]	0ryy	0ryy	2f/
2B\	.	.	2d/
2c\	.	.	2e/
2A\	.	.	2f/
=71	=71	=71	=71
!	!LO:N:vis=0	!LO:N:vis=0	!
2B\	0r	0r	1g
1c	.	.	.
.	.	.	2e/
2A\	.	.	2f/
=72	=72-	=72-	=72
2B\	0ryy	0ryy	1g
1c	.	.	.
.	.	.	1a
2A\	.	.	.
=73	=73	=73	=73
!	!LO:N:vis=0	!LO:N:vis=0	!
2B\	0r	0r	1r
1c	.	.	.
.	.	.	1a
[2d\	.	.	.
=74	=74-	=74-	=74
2d\]	0ryy	0ryy	1b-i
2B\	.	.	.
2c\	.	.	1a
[2d\	.	.	.
=75	=75	=75	=75
!	!LO:N:vis=0	!LO:N:vis=0	!
2d\]	0r	0r	2f/
2B\	.	.	2g/
2c\	.	.	[1a
2d\	.	.	.
=76	=76-	=76-	=76
1G	0ryy	0ryy	2a/]
.	.	.	1g
1A	.	.	.
.	.	.	2f#i/
=77	=77	=77	=77
0G	0r	1r	0g
.	.	1B	.
=78	=78-	=78-	=78
0r	1E	1c	0r
.	1F	[1d	.
=79	=79	=79	=79
2r	0G	1d]	0r
1G	.	.	.
.	.	1e	.
4F\	.	.	.
4E\	.	.	.
=80	=80-	=80-	=80
1F	1A	2d\	0r
.	.	2c\	.
1G	2G/	1B	.
.	2F/	.	.
=81	=81	=81	=81
1C	1E	1c	2r
.	.	.	2g/
2r	1F	1A	2f/
[2F\	.	.	[2a/
=82	=82-	=82-	=82
2F\]	1D	1B	2a/]
4E\	.	.	4g/
4D\	.	.	4f/
1C	1E	1c	1e
=83	=83	=83	=83
1BB-i	1F	1d	0d
2r	1G	1B	.
[2G\	.	.	.
=84	=84-	=84-	=84
2G\]	1E	1c	2r
4F\	.	.	2G/
4E\	.	.	.
1D	1F	[1d	1A
=85	=85	=85	=85
2r	0G	1d]	1B
2.d\	.	.	.
.	.	1d	1G
4c\	.	.	.
[2B\	.	.	.
=86	=86-	=86-	=86
4B\]	1G	1d	1r
4A\	.	.	.
4G\	.	.	.
4F\	.	.	.
1E	1G	1c	2r
.	.	.	2G/
=87	=87	=87	=87
1D	1F	1d	2A/
.	.	.	2B/
1C	1G	1e	1c
=88	=88-	=88-	=88
1F	1A	0f	2r
.	.	.	2c/
2BB-/	[1B-i	.	3d/
.	.	.	3e/
[2B-\	.	.	.
.	.	.	3f/
=89	=89	=89	=89
4B-\]	1B-]	1d	2B-/
4A\	.	.	.
2.G\	.	.	2.b-\
!	!	!LO:N:vis=1	!
.	1G	[y1e	.
4F\	.	.	4a/
4E\	.	.	[2g/
4D\	.	.	.
=90	=90-	=90-	=90
1C	0A	1e]yy	2g/]
.	.	.	4f#i/
.	.	.	4e/
!	!	!LO:N:vis=00	!
1D	.	[1dl	2f#i/
.	.	.	4g/
.	.	.	4f#i/
=91	=91	=91	=91
!	!LO:N:vis=00	!	!
0GGl	0Gl	0d]	0gl
*	*rscale:1	*rscale:1	*
!!LO:LB:i:g=z
=92||	=92||	=92||	=92||
*>B	*>B	*>B	*>B
*clefF4	*clefGv2	*clefGv2	*clefG2
*k[]	*k[]	*k[]	*k[b-]
*M2/1	*M2/1	*M2/1	*M2/1
*met(C|)	*met(C|)	*met(C|)	*met(C|)
!!section: Et incarnatus est
!!!OMD: Et incarnatus est
0G	0G	1.B	0g
.	.	2c\	.
=93	=93	=93	=93
1G	1B	1d	1g
1G	1G	1d	1b-
=94	=94	=94	=94
1F	1A	1d	1a
1G	1B	1d	1g
=95	=95	=95	=95
0D;	0A;	0d;	0f;
=96	=96	=96	=96
1F	1A	1c	1a
1F	1D	1A	1a
=97	=97	=97	=97
1G	1G	1B	1d
1E	1G	1c	1e
=98	=98	=98	=98
0D	0A	0d	0f
=99	=99	=99	=99
0C;	0c;	0e;	0g;
=100	=100	=100	=100
0C	0G	0e	0c
=101	=101	=101	=101
0BB-	0B-	0f	0d
=102	=102	=102	=102
0C	0G	0e	1.c
.	.	.	2d/
=103	=103	=103	=103
1AA	0A	1c	1e
1D	.	1d	1f
=104	=104	=104	=104
1C	1A	1e	1e
1D	1A	[1d	1f
=105	=105	=105	=105
0E	0G	1d]	1.g
.	.	1c#i	.
.	.	.	4f/
.	.	.	4e/
=106	=106	=106	=106
0D;	0A;	0d;	0f;
=107	=107	=107	=107
0AA	0A	0e	0a
=108	=108	=108	=108
0D	0F	0f	1a
.	.	.	1f
=109	=109	=109	=109
0C	0c	0e	0g
=110	=110	=110	=110
0F;	0A;	0c;	0a;
=111	=111	=111	=111
0C	0c	0e	0g
=112	=112	=112	=112
0D	0A	0d	0f
=113	=113	=113	=113
0AA	0A	0c	0e
=114	=114	=114	=114
1.BB	1.F	[0dl	1.d
2GG/	2G/	.	4c/
.	.	.	4B/
=115	=115	=115	=115
0GGl	0Gl	0d]	0Bl
!!LO:LB:i:g=z
=116||	=116||	=116||	=116||
*>C	*>C	*>C	*>C
*clefF4	*clefGv2	*clefGv2	*clefG2
*k[b-]	*k[]	*k[]	*k[b-]
*M2/1	*M2/1	*M2/1	*M2/1
*met(C|)	*met(C|)	*met(C|)	*met(C|)
!!section: Crucifixus
!!!OMD: Crucifixus
0r	0r	0r	1g
.	.	.	1a
=117	=117	=117	=117
1c	0r	0r	2g/
.	.	.	2e/
1d	.	.	2f/
.	.	.	2d/
=118	=118	=118	=118
2c\	0r	0r	2e/
2A\	.	.	2f/
2B-\	.	.	4g/
.	.	.	4f/
2G\	.	.	4e/
.	.	.	4d/
=119	=119	=119	=119
2A\	0r	0r	2c/
2B-\	.	.	2d/
1c	.	.	1e
=120	=120	=120	=120
0d	0r	0r	1d
.	.	.	1r
=121	=121	=121	=121
0r	0r	0r	1a
.	.	.	1b-
=122	=122	=122	=122
1d	0r	0r	2a/
.	.	.	2f/
1e-	.	.	1g
=123	=123	=123	=123
2d\	0r	0r	3%2f
2B-\	.	.	.
.	.	.	3g/
1c	.	.	3a/
.	.	.	3b-\
.	.	.	3a/
=124	=124	=124	=124
3%2B-	0r	0r	3%2b-
3c\	.	.	3g/
3d\	.	.	3f/
3e-i\	.	.	3g/
3d\	.	.	3f/
=125	=125	=125	=125
3%2e-i	0r	0r	0g
3c\	.	.	.
3B-\	.	.	.
3c\	.	.	.
3B-\	.	.	.
=126	=126	=126	=126
0c	0r	0r	1r
.	.	.	1a
=127	=127	=127	=127
1r	0r	0r	2b-\
.	.	.	1a
1d	.	.	.
.	.	.	2f/
=128	=128	=128	=128
2e-i\	0r	0r	2g/
2.d\	.	.	2a/
.	.	.	4b-\
4c\	.	.	4a/
4B-\	.	.	4g/
4A\	.	.	4f/
=129	=129	=129	=129
2B-\	0r	0r	4g/
.	.	.	4f/
2.c\	.	.	4e/
.	.	.	4d/
.	.	.	4e/
4B-\	.	.	4d/
4A\	.	.	4c/
4G\	.	.	4B-/
=130	=130	=130	=130
*k[]	*	*	*
2A\	0r	0r	4c/
.	.	.	4B-/
1G	.	.	4A/
.	.	.	4G/
.	.	.	1A
2F#i\	.	.	.
=131	=131	=131	=131
1G	2r	1d	0G
.	1G	.	.
2r	.	1d	.
2G\	[2G/	.	.
=132	=132	=132	=132
2E\	2G/]	1e	0r
2C/	1A	.	.
4D\	.	1d	.
4C/	.	.	.
4BB/	[2G/	.	.
4AA/	.	.	.
=133	=133	=133	=133
1GG	2G/]	1B	1.g
.	1E	.	.
2r	.	2c\	.
[2D\	2F/	2A/	[2f/
=134	=134	=134	=134
2D\]	2D/	2B\	2f/]
2C/	2E/	2c\	2e/
2BB/	2F/	1d	1d
2GG/	[2G/	.	.
=135	=135	=135	=135
1C	2G/]	1e	0c
.	1A	.	.
2.AA/	.	2r	.
.	2r	[2e\	.
4BB/	.	.	.
=136	=136	=136	=136
2C/	1A	2e\]	0r
1D	.	1f	.
.	1B-i	.	.
2E\	.	[2e\	.
=137	=137	=137	=137
2C/	1A	2e\]	2.cc\
1F	.	2c\	.
.	.	.	4b-\
.	2F/	2d\	4a/
.	.	.	4g/
4E\	2G/	[2e\	[2g/
4D\	.	.	.
=138	=138	=138	=138
2C/	1A	2e\]	2g/]
2D\	.	1d	2f#i/
1GG	1G	.	[1g
.	.	2r	.
=139	=139	=139	=139
1r	2r	2B\	1g]
.	2E/	2c\	.
2r	2F/	1d	1r
[2GG/	[2G/	.	.
=140	=140	=140	=140
2GG/]	2G/]	2B\	1r
2C/	2E/	2c\	.
2BB/	2F/	1d	2r
2GG/	[2G/	.	[2g/
=141	=141	=141	=141
1C	2G/]	1e	4g/]
.	.	.	4f/
.	1A	.	4e/
.	.	.	4d/
2AA/	.	2r	2c/
[2A\	2r	[2e\	[2cc\
=142	=142	=142	=142
4A\]	1A	2e\]	4cc\]
4G\	.	.	4b-\
4F\	.	1f	1a
4E\	.	.	.
2D\	1B-i	.	.
2E\	.	2e\	2g/
=143	=143	=143	=143
1AA	2A/	2e\	4a/
.	.	.	4g/
.	2A/	1e	2.cc\
2r	1A	.	.
.	.	.	4b-\
[2F\	.	2c\	4a/
.	.	.	4g/
=144	=144	=144	=144
2F\]	2F/	2d\	2a/
4E\	2G/	1e	2.g/
4D\	.	.	.
2C/	1A	.	.
.	.	.	4e/
2D\	.	[2d\	2f/
=145	=145	=145	=145
1GG	1G	2d\]	2r
.	.	2r	1B-
2r	1r	1r	.
2G\	.	.	4A/
.	.	.	4G/
=146	=146	=146	=146
2G\	0r	0r	1d
2G\	.	.	.
2G\	.	.	2r
2G\	.	.	[2b-\
=147	=147	=147	=147
2G\	0r	0r	2b-\]
2G\	.	.	4a/
.	.	.	4g/
1G	.	.	1dd
=148	=148	=148	=148
1A	0r	0r	1cc
2G\	.	.	2b-\
2F\	.	.	2a/
=149	=149	=149	=149
1E	0r	0r	1g
2D\	.	.	2.f/
[2F\	.	.	.
.	.	.	4e/
=150	=150	=150	=150
4F\]	0r	0r	2d/
4E\	.	.	.
1A	.	.	2c/
.	.	.	1B-
2G\	.	.	.
=151	=151	=151	=151
0A	0r	0r	1A
.	.	.	2r
.	.	.	2a/
=152	=152	=152	=152
1d	0r	0r	4b-\
.	.	.	4a/
.	.	.	4b-\
.	.	.	4a/
2d\	.	.	2b-\
[2c\	.	.	[2a/
=153	=153	=153	=153
2c\]	0r	0r	4a/]
.	.	.	4g/
2B-\	.	.	1g
1A	.	.	.
.	.	.	2f#i/
=154	=154	=154	=154
1G	0r	0r	0g
2E\	.	.	.
2F\	.	.	.
=155	=155	=155	=155
1G	0r	0r	2r
.	.	.	1b-
1G	.	.	.
.	.	.	4a/
.	.	.	4g/
=156	=156	=156	=156
2F\	0r	0r	4a/
.	.	.	4g/
2G\	.	.	2b-\
2F\	.	.	4a/
.	.	.	4g/
2G\	.	.	[2b-\
=157	=157	=157	=157
2F\	0r	0r	4b-\]
.	.	.	4a/
2G\	.	.	1g
1A	.	.	.
.	.	.	2f#i/
=158	=158	=158	=158
*	*	*	*k[]
0G	1r	1r	0g
.	2r	2B\	.
.	2E/	2c\	.
=159	=159	=159	=159
0r	2F/	2d\	0r
.	2G/	2d\	.
.	2G/	1d	.
.	[2G/	.	.
=160	=160	=160	=160
0r	2G/]	1d	0r
.	1G	.	.
.	.	1e	.
.	[2A/	.	.
=161	=161	=161	=161
1r	2A/]	2c\	2r
.	2F/	2d\	1d
1GG	2G/	1B	.
.	[2E/	.	4c/
.	.	.	4B/
=162	=162	=162	=162
2AA/	2E/]	2A/	2c/
2BB/	2D/	2r	2d/
1C	2r	1e	1r
.	[2A/	.	.
=163	=163	=163	=163
1D	2A/]	1f	0r
.	1B-i	.	.
2E\	.	2e\	.
2F\	2A/	2c\	.
=164	=164	=164	=164
2D\	2F/	2d\	1r
2.G\	2G/	1e	.
.	1A	.	2r
4E\	.	.	.
2F#i\	.	[2d\	2a/
=165	=165	=165	=165
1G	1G	2d\]	2b\
.	.	2B\	1g
2r	2E/	2c\	.
2A\	2F/	[2d\	4f/
.	.	.	4e/
=166	=166	=166	=166
2B\	1.G	1d]	1d
2.G\	.	.	.
.	.	2d\	1r
4F\	.	.	.
2E\	2G/	2c\	.
=167	=167	=167	=167
2D\	2F/	2d\	0r
2E\	2G/	2c\	.
2D\	2F/	2d\	.
2E\	2G/	2c\	.
=168	=168	=168	=168
2D\	2F/	2d\	0r
2.G\	2G/	1e	.
.	1A	.	.
4E\	.	.	.
2F\	.	[2d\	.
=169	=169	=169	=169
2G\	1G	2d\]	1r
2B\	.	2r	.
1A	1r	1r	2e/
.	.	.	2f/
=170	=170	=170	=170
2G\	0r	0r	1g
1c	.	.	.
.	.	.	1g
4B\	.	.	.
4A\	.	.	.
=171	=171	=171	=171
2B\	0r	0r	1g
2c\	.	.	.
1F	.	.	1a
=172	=172	=172	=172
2r	0r	0r	2g/
1A	.	.	2f/
.	.	.	[1e
4G\	.	.	.
4F\	.	.	.
=173	=173	=173	=173
2G\	0r	0r	1e]
2A\	.	.	.
2D\	.	.	2r
[2d\	.	.	[2f/
=174	=174	=174	=174
2d\]	0r	0r	2f/]
4c\	.	.	2d/
4B\	.	.	.
2c\	.	.	2e/
2d\	.	.	2f/
=175	=175	=175	=175
1G	0r	0r	1g
2r	.	.	1a
[2d\	.	.	.
=176	=176	=176	=176
2d\]	0r	0r	1r
4c\	.	.	.
4B\	.	.	.
2c\	.	.	1a
2d\	.	.	.
=177	=177	=177	=177
2G\	0r	0r	2b-i\
1c	.	.	1a
4B\	.	.	4g/
4A\	.	.	4f/
=178	=178	=178	=178
2B\	0r	0r	1g
2c\	.	.	.
2F\	.	.	2r
[2A\	.	.	[2f/
=179	=179	=179	=179
2A\]	0r	0r	2f/]
4G\	.	.	4e/
4F\	.	.	4d/
2G\	.	.	1e
2A\	.	.	.
=180	=180	=180	=180
2D\	0r	0r	2r
1F	.	.	1d
4E\	.	.	4c/
4D\	.	.	4B/
=181	=181	=181	=181
2E\	0r	0r	1c
2F\	.	.	.
2BB-i/	.	.	2r
[2D\	.	.	[2B/
=182	=182	=182	=182
2D\]	0r	0r	2B/]
4C/	.	.	4A/
4BB-i/	.	.	4G/
2C/	.	.	1A
2D\	.	.	.
=183	=183	=183	=183
2GG/	0r	0r	2G/
2.G\	.	.	1G
4A\	.	.	.
4B\	.	.	2b\
4c\	.	.	.
=184	=184	=184	=184
4d\	0r	0r	2b\
4G\	.	.	.
1d	.	.	2b\
.	.	.	2b\
[2c\	.	.	[2a/
=185	=185	=185	=185
2c\]	0r	0r	4a/]
.	.	.	4g/
2B\	.	.	1g
1A	.	.	.
.	.	.	2f#i/
=186	=186	=186	=186
1G	0r	0r	2g/
.	.	.	2.G/
2B\	.	.	.
.	.	.	4A/
2B\	.	.	4B/
.	.	.	4c/
=187	=187	=187	=187
2B\	0r	0r	4d/
.	.	.	4G/
2B\	.	.	1d
2B\	.	.	.
[2A\	.	.	[2c/
=188	=188	=188	=188
4A\]	0r	0r	2c/]
4G\	.	.	.
1G	.	.	2B/
.	.	.	1A
2F#i\	.	.	.
=189	=189	=189	=189
0G	1r	1r	0G
.	2r	2B\	.
.	2E/	2c\	.
=190	=190	=190	=190
0r	2F/	1d	0r
.	1G	.	.
.	.	1d	.
.	[2G/	.	.
=191	=191	=191	=191
1r	2G/]	1d	2r
.	1G	.	1g
1C	.	1e	.
.	[2A/	.	2e/
=192	=192	=192	=192
2AA/	2A/]	2c\	2f/
2BB/	2F/	2d\	1d
1GG	2G/	1B	.
.	[2E/	.	[2g/
=193	=193	=193	=193
1C	2E/]	1e	2g/]
.	1A	.	1a
1D	.	1f	.
.	[2B-\	.	2f/
=194	=194	=194	=194
2BB/	2B-\]	2d\	2g/
2C/	2G/	2e\	2e/
2AA/	2A/	2c\	2f/
2BB/	2F/	2d\	2d/
=195	=195	=195	=195
2GG/	2G/	2e\	2g/
1D	2A/	2.f\	2f/
.	2.B-i\	.	1d
.	.	4e\	.
2BB-i/	.	[2d\	.
.	4A/	.	.
=196	=196	=196	=196
1E-	1G	2d\]	0r
.	.	2c\	.
2D\	2F/	1d	.
[2B-i\	[2G/	.	.
=197	=197	=197	=197
2B-\]	2G/]	2B\	0r
4A\	2E/	2c\	.
4G\	.	.	.
2A\	2F/	1d	.
2B-i\	[2G/	.	.
=198	=198	=198	=198
1G	2G/]	1d	0r
.	1G	.	.
1r	.	2d\	.
.	2G/	2e\	.
=199	=199	=199	=199
0r	2A/	2c\	0r
.	2F/	2d\	.
.	2G/	1B	.
.	[2E/	.	.
=200	=200	=200	=200
0r	2E/]	2c\	0r
.	2F/	2A/	.
.	2D/	2B\	.
.	2E/	2c\	.
=201	=201	=201	=201
0r	2F/	1d	0r
.	1G	.	.
.	.	1e	.
.	[2A/	.	.
=202	=202	=202	=202
0r	2A/]	2c\	0r
.	2F/	2d\	.
.	2G/	1e	.
.	[2A/	.	.
=203	=203	=203	=203
1D	2A/]	2f\	1r
.	2B-i\	1d	.
1E	1G	.	2r
.	.	2c\	2G/
=204	=204	=204	=204
2D\	2F/	1d	2A/
2GG/	1G	.	2B/
1GG	.	1r	2G/
.	2r	.	[2b-\
=205	=205	=205	=205
1G	0r	0r	4b-\]
.	.	.	4a/
.	.	.	1g
1A	.	.	.
.	.	.	2f#i/
=206	=206	=206	=206
1G	0r	0r	1g
1E	.	.	2r
.	.	.	[2c/
=207	=207	=207	=207
2F\	0r	0r	2c/]
2D\	.	.	2d/
2E\	.	.	2c/
2F\	.	.	[2d/
=208	=208	=208	=208
4G\	0r	0r	4d/]
4E\	.	.	4c/
1A	.	.	4B/
.	.	.	4A/
.	.	.	1B
2G#i\	.	.	.
=209	=209	=209	=209
0A	0r	0r	1A
.	.	.	1r
=210	=210	=210	=210
2r	0r	0r	2d/
2D\	.	.	2.f/
2.F\	.	.	.
.	.	.	4g/
.	.	.	4a/
4G\	.	.	4b\
=211	=211	=211	=211
4A\	0r	0r	2.cc\
4B\	.	.	.
2.c\	.	.	.
.	.	.	4b\
.	.	.	4a/
4B\	.	.	4g/
2G\	.	.	[2b\
=212	=212	=212	=212
2B\	0r	0r	4b\]
.	.	.	4a/
2c\	.	.	1g
1A	.	.	.
.	.	.	2f#i/
=213	=213	=213	=213
1G	0r	0r	1g
1r	.	.	1r
=214	=214	=214	=214
[0GG	0r	0d	[0g
=215	=215	=215	=215
0GG]	0G	0d	0g]
=216	=216	=216	=216
0GG	0G	0B	0d
=217	=217	=217	=217
0C	0E	0c	0e
=218	=218	=218	=218
0D	0F	0B	1d
.	.	.	[1d
=219	=219	=219	=219
0AA	0E	0A	2d/]
.	.	.	4c#i/
.	.	.	4B/
.	.	.	1c#i
=220	=220	=220	=220
0BB	0D	0r	0d
=221	=221	=221	=221
0C	0r	0e	1G
.	.	.	1g
=222	=222	=222	=222
1.D	0A	[0f	2.f/
.	.	.	8e/L
.	.	.	8d/J
.	.	.	1a
2C/	.	.	.
=223	=223	=223	=223
1D	[0B-i	1f]	2r
.	.	.	1a
[1E	.	1e	.
.	.	.	4g/
.	.	.	4f/
=224	=224	=224	=224
1E]	1B-]	0e	1g
[1AA	1A	.	[1a
=225	=225	=225	=225
0AA]	0A	0r	1a]
.	.	.	1A
=226	=226	=226	=226
1.AA	0r	[0e	1.c
2BB/	.	.	2d/
=227	=227	=227	=227
1C	[0A	1e]	1e
[1D	.	[1d	[1f
=228	=228	=228	=228
1D]	1A]	0d]	2f/]
.	.	.	4g/
.	.	.	4a/
1GG	[1G	.	1b-
=229	=229	=229	=229
0C	0G]	[0c	2g/
.	.	.	1cc
.	.	.	2b\
=230	=230	=230	=230
1FF	[0F	1c]	2a/
.	.	.	2g/
[1BB-	.	[1d	2f/
.	.	.	2e/
=231	=231	=231	=231
1BB-]	1F]	0d]	2d/
.	.	.	2c/
1GG	[1G	.	2B/
.	.	.	2A/
=232	=232	=232	=232
1C	0G]	1e	0G
1BB	.	1d	.
=233	=233	=233	=233
1C	1A	1c	1r
1GG	1G	1B	1g
=234	=234	=234	=234
1D	1F	[0A	2a/
.	.	.	2b\
1C	1E	.	2cc\
.	.	.	[2a/
=235	=235	=235	=235
0D	[0D	0A]	4a/]
.	.	.	4g/
.	.	.	4f#i/
.	.	.	4e/
.	.	.	1f#i
=236	=236	=236	=236
0GG	0D]	[0B	[0g
=237	=237	=237	=237
[0G	[0El	0B]	1g]
.	.	.	1e
=238	=238	=238	=238
1G]	0E_	[0Bl	[0el
1E	.	.	.
=239	=239	=239	=239
0El	0E]	0B]	0e]
==	==	==	==
*-	*-	*-	*-
!!!RDF**kern: l=long note in original notation
!!!RDF**kern: i=editorial accidental
!!!RDF**kern: V=start of tuplet marker
!!!RDF**kern: Z=end of tuplet marker
!!!ENC:	Jesse Rodin; Victoria Chang 2012/02/02
!!!END:	2012/02/02/
!!!EED:	Jesse Rodin
!!!EEV:	2012/06/24/
!!attribution-level@Jos: 3 (tricky)
!!!ONB:	Translated from MusicXML and edited on 2012/06/24/ by Craig Sapp
!!muse2ps: C^@{COA}?\n@{SCT}^i2I150v85,85,85,150Q16
